cps 1.4

d1 $ sound $ slow 4 $ "bd bd*2 cp bd*2 bd bd cp bd"
d2 $ slow 8 $ sound "f f" |+| pit 0 "[0,10,-3] ~ ~ ~" |+| gain "0.6"

d1 $ sound $ "bd" ++ (iter 


d2 $ slow 2 $ sound "f f" |+| pit 0 "[0,13,21] ~ [0,10,-3] ~" |+| gain "0.6"

