let g = L.empty :: G
view g $ nodes g
-- must hear ! two samples, two parts, two part-parts, ..
g <- return $ addNodes [Q $ Spl "bd", Q $ Spl "ho"] g
g <- return $ addNodes [Sd,Sd] g
g <- return $ insEdges [(2,0,HasAt 0),(2,1,HasAt $ 1/2)] g
d1 $ hStar g 0

>>>
d1 $ sd $ trigListToPatt [(0,"bd"),(1/2,"hh")]

-- a more complex graph
g <- return $ addNodes [Q $ Spl "bd", Q $ Spl "ho", Q $ Spd 440, Q $ Spd 550, Q $ Amp 0.7, Q $ Amp 1] g
